!!!COM: Honegger, Arthur
!!!OTL: Jeanne d'Arc au bûcher (Joan of Arc at the Stake), Dramatic Oratorio for Spoken Roles, Soli, Voice and Children's Choir, Mixed Chorus and Orchestra
!!!OMV: Scene 4: Joan Given Up to the Beasts
!!!example: 596
!!!work: Hon-29
**kern	**dynam	**kern	**dynam	**kern	**dynam	**kern	**dynam	**kern	**dynam	**kern	**dynam	**kern	**dynam	**kern	**dynam	**kern	**dynam	**kern	**kern	**kern	**kern	**kern	**kern	**kern	**kern	**kern	**kern	**kern
*part18	*part18	*part17	*part17	*part16	*part16	*part15	*part15	*part14	*part14	*part13	*part13	*part12	*part12	*part11	*part11	*part10	*part10	*part9	*part8	*part7	*part6	*part6	*part5	*part5	*part4	*part3	*part2	*part1
*staff20	*	*staff19	*	*staff18	*	*staff17	*	*staff16	*	*staff15	*	*staff14	*	*staff13	*	*staff12	*	*staff11	*staff10	*staff9	*staff8	*staff7	*staff6	*staff5	*staff4	*staff3	*staff2	*staff1
*I"Contrabass	*	*I"Violoncello	*	*I"Viola	*	*I"Violin II	*	*I"Violin I	*	*I"Baritone	*	*I"Tenor	*	*I"Alto	*	*I"Soprano	*	*I"Treble Solo	*I"Cymbals	*I"Timpani	*I"Piano	*	*I"Piano	*	*I"Trombone	*I"Trombone	*I"Trumpet in Bb	*I"Piccolo Trumpet in Bb
*I'Cb.	*	*I'Vc.	*	*I'Vla.	*	*I'Vln. II	*	*I'Vln. I	*	*I'Bar.	*	*I'T.	*	*I'A.	*	*I'S.	*	*I'Tr. Solo	*I'Cym.	*I'Timp.	*I'Pno.	*	*I'Pno.	*	*I'Tbn.	*I'Tbn.	*I'Tpt.	*I'Picc. Tpt.
*clefF4	*	*clefF4	*	*clefC3	*	*clefG2	*	*clefG2	*	*clefF4	*	*clefGv2	*	*clefG2	*	*clefG2	*	*clefG2	*clefpercussion0	*clefF4	*clefF4	*clefG2	*clefF4	*clefG2	*clefF4	*clefC4	*clefG2	*clefG2
*k[]	*	*k[]	*	*k[]	*	*k[]	*	*k[]	*	*k[]	*	*k[]	*	*k[]	*	*k[]	*	*k[]	*	*	*k[]	*k[]	*k[]	*k[]	*k[]	*k[]	*k[]	*k[]
*	*	*	*	*	*	*	*	*	*	*	*	*	*	*	*	*	*	*	*	*	*	*	*	*	*	*	*	*
*M2/2	*	*M2/2	*	*M2/2	*	*M2/2	*	*M2/2	*	*M2/2	*	*M2/2	*	*M2/2	*	*M2/2	*	*M2/2	*M2/2	*M2/2	*M2/2	*M2/2	*M2/2	*M2/2	*M2/2	*M2/2	*M2/2	*M2/2
*MM121	*	*MM121	*	*MM121	*	*MM121	*	*MM121	*	*MM121	*	*MM121	*	*MM121	*	*MM121	*	*MM121	*MM121	*MM121	*MM121	*MM121	*MM121	*MM121	*MM121	*MM121	*MM121	*MM121
*met(c|)	*	*met(c|)	*	*met(c|)	*	*met(c|)	*	*met(c|)	*	*met(c|)	*	*met(c|)	*	*met(c|)	*	*met(c|)	*	*met(c|)	*met(c|)	*met(c|)	*met(c|)	*met(c|)	*met(c|)	*met(c|)	*met(c|)	*met(c|)	*met(c|)	*met(c|)
=279	=	=	=	=	=	=	=	=	=	=	=	=	=	=	=	=	=	=	=	=	=	=	=	=	=	=	=	=
4GGG 4DD	f	4GG 4D 4B	f	4B 4g 4ee	f	4g 4b 4ee	f	4d 4b 4gg	f	2r	.	2r	.	2r	.	2r	.	4gg	1r	4GG	4GG 4D 4B	4b 4dd 4ee 4gg	4GG 4D 4B	4b 4dd 4ee 4gg	4r	4r	4r	1r
4r	.	4r	.	4r	.	4r	.	4r	.	.	.	.	.	.	.	.	.	4g	.	4r	4r	4r	4r	4r	4d^	4e^ 4g	4a^ 4cc 4dd	.
4r	.	4r	.	4r	.	4r	.	4r	.	4G	f	4g	f	4gg	f	4gg	f	2r	.	4r	4r	4r	4r	4r	4d^	4e^ 4g	4a^ 4cc 4dd	.
4GGG 4DD	.	4GG 4D 4B	.	4B 4g 4ee	.	4g 4b 4ee	.	4d 4b 4gg	.	4GG	.	4G	.	4g	.	4g	.	.	.	4GG	4GG 4D 4B	4b 4dd 4ee 4gg	4GG 4D 4B	4b 4dd 4ee 4gg	4r	4r	4r	.
=280	=280	=280	=280	=280	=280	=280	=280	=280	=280	=280	=280	=280	=280	=280	=280	=280	=280	=280	=280	=280	=280	=280	=280	=280	=280	=280	=280	=280
2r	.	2r	.	2r	.	2r	.	2r	.	1r	.	1r	.	1r	.	1r	.	4r	1r	2r	2r	2r	2r	2r	4d	4e 4g	4a 4cc 4dd	1r
.	.	.	.	.	.	.	.	.	.	.	.	.	.	.	.	.	.	4dd	.	.	.	.	.	.	4d	4e 4g	4a 4cc 4dd	.
4GGG 4DD	.	4GG 4D 4B	.	4B 4g 4ee	.	4g 4b 4ee	.	4d 4b 4gg	.	.	.	.	.	.	.	.	.	4ee	.	4GG	4GG 4D 4B	4b 4dd 4ee 4gg	4GG 4D 4B	4b 4dd 4ee 4gg	4r	4r	4r	.
4r	.	4r	.	4r	.	4r	.	4r	.	.	.	.	.	.	.	.	.	4ff#X	.	4r	4r	4r	4r	4r	4B	4d 4f#X	4g#X 4b-X 4ee-X	.
=281	=281	=281	=281	=281	=281	=281	=281	=281	=281	=281	=281	=281	=281	=281	=281	=281	=281	=281	=281	=281	=281	=281	=281	=281	=281	=281	=281	=281
4r	.	4r	.	4r	.	4r	.	4r	.	2r	.	2r	.	2r	.	2r	.	4gg	1r	4r	4r	4r	4r	4r	4d	4e 4g	4a 4cc 4dd	1r
4GGG 4DD	.	4GG 4D 4B	.	4B 4g 4ee	.	4g 4b 4ee	.	4d 4b 4gg	.	.	.	.	.	.	.	.	.	4g	.	4GG	4GG 4D 4B	4b 4dd 4ee 4gg	4GG 4D 4B	4b 4dd 4ee 4gg	4r	4r	4r	.
2r	.	2r	.	2r	.	4r	.	2r	.	4G	.	4g	.	4gg	.	4gg	.	2r	.	2r	2r	2r	2r	2r	4B	4d 4f#X	4g#X 4b-X 4ee-X	.
.	.	.	.	.	.	4r	.	.	.	4GG	.	4G	.	4g	.	4g	.	.	.	.	.	.	.	.	4d	4e 4g	4a 4cc 4dd	.
=282	=282	=282	=282	=282	=282	=282	=282	=282	=282	=282	=282	=282	=282	=282	=282	=282	=282	=282	=282	=282	=282	=282	=282	=282	=282	=282	=282	=282
4GGG 4DD	.	4GG 4D 4B	.	4B 4g 4ee	.	4g 4b 4ee	.	4d 4b 4gg	.	2G	.	1r	.	1r	.	1r	.	1gg	1r	4GG	4GG 4D 4B	4b 4dd 4ee 4gg	4GG 4D 4B	4b 4dd 4ee 4gg	4r	4r	4r	1fff
4r	.	4r	.	4r	.	4r	.	4r	.	.	.	.	.	.	.	.	.	.	.	4r	4r	4r	4r	4r	4d	4e 4g	4a 4cc 4dd	.
4r	.	4r	.	4r	.	4r	.	4r	.	4GG	.	.	.	.	.	.	.	.	.	4r	4r	4r	4r	4r	4d	4e 4g	4a 4cc 4dd	.
4GGG 4DD	.	4GG 4D 4B	.	4B 4g 4ee	.	4g 4b 4ee	.	4d 4b 4gg	.	4r	.	.	.	.	.	.	.	.	.	4GG	4GG 4D 4B	4b 4dd 4ee 4gg	4GG 4D 4B	4b 4dd 4ee 4gg	4r	4r	4r	.
=283	=283	=283	=283	=283	=283	=283	=283	=283	=283	=283	=283	=283	=283	=283	=283	=283	=283	=283	=283	=283	=283	=283	=283	=283	=283	=283	=283	=283
2r	.	2r	.	2r	.	2r	.	2r	.	2G	.	2g	.	1r	.	1r	.	[1bb	1r	2r	2r	2r	2r	2r	4d	4e 4g	4a 4cc 4dd	[1aaa
.	.	.	.	.	.	.	.	.	.	.	.	.	.	.	.	.	.	.	.	.	.	.	.	.	4d	4e 4g	4a 4cc 4dd	.
4GGG 4DD	.	4GG 4D 4B	.	4B 4g 4ee	.	4g 4b 4ee	.	4d 4b 4gg	.	4GG	.	4G	.	.	.	.	.	.	.	4GG	4GG 4D 4B	4b 4dd 4ee 4gg	4GG 4D 4B	4b 4dd 4ee 4gg	4r	4r	4r	.
4r	.	4r	.	4r	.	4r	.	4r	.	4r	.	4r	.	.	.	.	.	.	.	4r	4r	4r	4r	4r	4B	4d 4f#X	4g#X 4b-X 4ee-X	.
=284	=284	=284	=284	=284	=284	=284	=284	=284	=284	=284	=284	=284	=284	=284	=284	=284	=284	=284	=284	=284	=284	=284	=284	=284	=284	=284	=284	=284
4r	.	4r	.	4r	.	4r	.	4r	.	2G	.	2g	.	4r	.	4gg	.	4bb]	4r	4r	4r	4r	4r	4r	4d	4e 4g	4a 4cc 4dd	4aaa]
4GGG 4DD	.	4GG 4D 4B	.	4B 4g 4ee	.	4g 4b 4ee	.	4d 4b 4gg	.	.	.	.	.	4g	.	4g	.	4bb	4x	4GG	4GG 4D 4B	4b 4dd 4ee 4gg	4GG 4D 4B	4b 4dd 4ee 4gg	4r	4r	4r	4aaa
4r	.	4r	.	4r	.	4r	.	4r	.	4GG	.	4G	.	4r	.	4gg	.	4aa	4r	2r	4r	4r	4r	4r	4B	4d 4f#X	4g#X 4b-X 4ee-X	4ggg
4r	.	4r	.	4r	.	4r	.	4r	.	4r	.	4r	.	4g	.	4g	.	4gg	4x	.	4r	4r	4r	4r	4d	4e 4g	4a 4cc 4dd	4fff
=285	=285	=285	=285	=285	=285	=285	=285	=285	=285	=285	=285	=285	=285	=285	=285	=285	=285	=285	=285	=285	=285	=285	=285	=285	=285	=285	=285	=285
4GGG 4DD	.	4GG 4D 4B	.	4B 4g 4ee	.	4g 4b 4ee	.	4d 4b 4gg	.	2G	.	2g	.	4r	.	4gg	.	4gg	4r	4GG	4GG 4D 4B	4b 4dd 4ee 4gg	4GG 4D 4B	4b 4dd 4ee 4gg	4r	4r	4r	4fff
4r	.	4r	.	4r	.	4r	.	4r	.	.	.	.	.	4g	.	4g	.	4dd	4x	4r	4r	4r	4r	4r	4B	4d 4f#X	4g#X 4b-X 4ee-X	4ccc
4r	.	4r	.	4r	.	4r	.	4r	.	4GG	.	4G	.	4r	.	4gg	.	2r	4r	4r	4r	4r	4r	4r	2r	2r	2r	2r
4GGG 4DD	.	4GG 4D 4B	.	4B 4g 4ee	.	4g 4b 4ee	.	4d 4b 4gg	.	4r	.	4r	.	4g	.	4g	.	.	4x	4GG	4GG 4D 4B	4b 4dd 4ee 4gg	4GG 4D 4B	4b 4dd 4ee 4gg	.	.	.	.
==	==	==	==	==	==	==	==	==	==	==	==	==	==	==	==	==	==	==	==	==	==	==	==	==	==	==	==	==
*-	*-	*-	*-	*-	*-	*-	*-	*-	*-	*-	*-	*-	*-	*-	*-	*-	*-	*-	*-	*-	*-	*-	*-	*-	*-	*-	*-	*-
!!!CDT: 1892/03/10-1955/11/27
!!!CBL: Le Havre, France
!!!CDL: Paris, France
!!!CNT: Swiss, French
!!!AGN: Stage; Theatrical
!!!MCN: Sacher, Paul
!!!MDT: 1938/05/12
!!!MGN: Les Singknaben de l'Eglise Évangélique Réformée; Basel Chamber Choir; Basel Chamber Orchestra
!!!MLC: Basel, Switzerland
!!!MPD: 1938
!!!MPN: Bauer, Ernest; Falk, Lina; Hirsig-Löwe, Mariann; Martenot, Maurice; Périer, Jean; Rubinstein, Ida; Sandoz, Paul; Sandos, Serge; Vaucher, Charles; Vigier, Berthe de; Vivante, Ginevra
!!!ODT: 1935 (rev. 1944)
!!!PDT: 1935
!!!excerpt-start-measure: 279
!!!excerpt-end-measure: 285
!!!excerpt-start-time: 1:36
!!!excerpt-end-time: 1:46
!!!EEV: 2020/01/17
!!!system-decoration: [(s1,s2,s3,s4)]{(s5,s6)}{(s7,s8)}[(s9)]s10[(s11,s12,s13,s14,s15)][(s16,s17,s18,s19,s20)]
!!!ONB: Converted from MusicXML on 2020/01/17
